X:1
T:Devilish Mary (2)
M:2/4
L:1/8
K:A
 EF G3/2 F/2 ED| C3/2 E/2 EE AE|
M:3/4
=G-F E3 E/2E/2|
M:2/4
 EFA E/2E/2| F/2F/2E/2 E/2 C3/2 B,/2| CEE, F,| A,2 A,2| A,3/2 A,/2 A, C/2 E/2-|\
 EDC-B,| A,3/2 C/2 B,C| A,2 E,2| A,3/2 A,/2 A, C/2 E/2-| EDC-B,| CA,B, G,|\
 A,2 A,2| z2|

